X: 1
T:Campbell's Farewell to Redcastle
M:4/4
L:1/4
R:March
K:A mixolydian
e|"A"A>Bcd|"A"eae>d|"A"cAAB/c/|"G"d>BGB|"A"A>Bcd|"A"eae>d|!"A"cB/A/ "G"=
GB|"
A"A2A:||=g/e/|"A"eaa=g/f/|"A"eae>d|"A"cAAB/c/|"G"d>B=Gg/f/|!"A"eaa=g/f/|
